flaticon/emoticons/happy-9.svg

<svg xmlns="http://www.w3.org/2000/svg" width="32" height="32" viewBox="0 0 24 24">
    <path d="M 12 0 C 5.382812 0 0 5.382812 0 12 C 0 18.617188 5.382812 24 12 24 C 18.617188 24 24 18.617188 24 12 C 24 5.382812 18.617188 0 12 0 Z M 12 22.910156 C 5.984375 22.910156 1.089844 18.015625 1.089844 12 C 1.089844 5.984375 5.984375 1.089844 12 1.089844 C 18.015625 1.089844 22.910156 5.984375 22.910156 12 C 22.910156 18.015625 18.015625 22.910156 12 22.910156 Z M 12 22.910156"/>
    <path d="M18 13.089844C17.699219 13.089844 17.453125 13.335938 17.453125 13.636719 17.453125 16.644531 15.007812 19.089844 12 19.089844 8.992188 19.089844 6.546875 16.644531 6.546875 13.636719 6.546875 13.335938 6.300781 13.089844 6 13.089844 5.699219 13.089844 5.453125 13.335938 5.453125 13.636719 5.453125 17.246094 8.390625 20.183594 12 20.183594 15.609375 20.183594 18.546875 17.246094 18.546875 13.636719 18.546875 13.335938 18.300781 13.089844 18 13.089844zM7.089844 7.636719C7.992188 7.636719 8.726562 8.371094 8.726562 9.273438 8.726562 9.574219 8.972656 9.816406 9.273438 9.816406 9.574219 9.816406 9.816406 9.574219 9.816406 9.273438 9.816406 7.769531 8.59375 6.546875 7.089844 6.546875 5.585938 6.546875 4.363281 7.769531 4.363281 9.273438 4.363281 9.574219 4.609375 9.816406 4.910156 9.816406 5.210938 9.816406 5.453125 9.574219 5.453125 9.273438 5.453125 8.371094 6.1875 7.636719 7.089844 7.636719zM16.910156 6.546875C15.40625 6.546875 14.183594 7.769531 14.183594 9.273438 14.183594 9.574219 14.425781 9.816406 14.726562 9.816406 15.027344 9.816406 15.273438 9.574219 15.273438 9.273438 15.273438 8.371094 16.007812 7.636719 16.910156 7.636719 17.8125 7.636719 18.546875 8.371094 18.546875 9.273438 18.546875 9.574219 18.789062 9.816406 19.089844 9.816406 19.390625 9.816406 19.636719 9.574219 19.636719 9.273438 19.636719 7.769531 18.414062 6.546875 16.910156 6.546875zM16.910156 6.546875"/>
</svg>

<svg xmlns="http://www.w3.org/2000/svg" width="32" height="32" viewBox="0 0 24 24">
    <path d="M12 0C5.383 0 0 5.383 0 12s5.383 12 12 12 12-5.383 12-12S18.617 0 12 0zm0 22.91C5.984 22.91 1.09 18.016 1.09 12S5.984 1.09 12 1.09 22.91 5.984 22.91 12 18.016 22.91 12 22.91zm0 0"/>
    <path d="M18 13.09c-.3 0-.547.246-.547.547A5.458 5.458 0 0 1 12 19.09a5.458 5.458 0 0 1-5.453-5.453c0-.301-.246-.547-.547-.547-.3 0-.547.246-.547.547A6.555 6.555 0 0 0 12 20.184a6.555 6.555 0 0 0 6.547-6.547c0-.301-.246-.547-.547-.547zm0 0M7.09 7.637c.902 0 1.637.734 1.637 1.636a.545.545 0 0 0 1.09 0A2.729 2.729 0 0 0 7.09 6.547a2.729 2.729 0 0 0-2.727 2.726.545.545 0 0 0 1.09 0c0-.902.734-1.636 1.637-1.636zm0 0M16.91 6.547a2.729 2.729 0 0 0-2.726 2.726.545.545 0 0 0 1.09 0c0-.902.734-1.636 1.636-1.636.902 0 1.637.734 1.637 1.636a.545.545 0 0 0 1.09 0 2.729 2.729 0 0 0-2.727-2.726zm0 0"/>
</svg>
